X:469
T: DA DROBEN AUF JENEM BERGE
N: E0419C
O: Europa, Mitteleuropa, Deutschland, Brandenburg
R: Liebes - Lied, Abschied
M: 6/8
L: 1/16
K: G
D2 | G3Bd2d3^cd2 | B6A4
D2 | G3AB2B3AG2 | A8z2
d2 | B3cd2B3cd2 | e4ged4
c2 | B3cB2A2G2A2 | G8z2

@@@ Tune index: 4119
